docs/img/svg/fb.svg

<svg width="24" height="24" viewBox="0 0 24 24" fill="none" xmlns="http://www.w3.org/2000/svg">
<rect width="24" height="24" rx="12" fill="#414F91"/>
<path d="M14.7741 6.0025L13.3349 6C11.7181 6 10.6733 7.15914 10.6733 8.95322V10.3148H9.22629C9.10125 10.3148 9 10.4245 9 10.5597V12.5325C9 12.6677 9.10137 12.7772 9.22629 12.7772H10.6733V17.7553C10.6733 17.8905 10.7745 18 10.8996 18H12.7875C12.9125 18 13.0137 17.8904 13.0137 17.7553V12.7772H14.7056C14.8306 12.7772 14.9319 12.6677 14.9319 12.5325L14.9326 10.5597C14.9326 10.4947 14.9087 10.4326 14.8663 10.3866C14.8239 10.3407 14.7662 10.3148 14.7062 10.3148H13.0137V9.16058C13.0137 8.60579 13.136 8.32415 13.8044 8.32415L14.7738 8.32377C14.8987 8.32377 15 8.21416 15 8.07909V6.24718C15 6.11223 14.8989 6.00275 14.7741 6.0025Z" fill="white"/>
</svg>

<svg width="24" height="24" viewBox="0 0 24 24" fill="none" xmlns="http://www.w3.org/2000/svg"><rect width="24" height="24" rx="12" fill="#414F91"/><path d="M14.774 6.003L13.334 6c-1.616 0-2.66 1.16-2.66 2.953v1.362H9.225c-.125 0-.226.11-.226.245v1.973c0 .135.101.244.226.244h1.447v4.978c0 .136.101.245.227.245h1.887c.125 0 .227-.11.227-.245v-4.978h1.692c.125 0 .226-.11.226-.244V10.56a.256.256 0 00-.066-.173.218.218 0 00-.16-.072h-1.692V9.16c0-.555.122-.837.79-.837h.97c.125 0 .226-.11.226-.245V6.247c0-.135-.101-.244-.226-.244z" fill="#fff"/></svg>
